content/uploads/wa.svg

<svg width="320" height="320" viewBox="0 0 244 244" xmlns="http://www.w3.org/2000/svg" xml:space="preserve" style="fill-rule:evenodd;clip-rule:evenodd;stroke-linejoin:round;stroke-miterlimit:2"><path d="m.746-.5.027.001c.022 0 .051.002.064.005a.201.201 0 0 1 .104.054.201.201 0 0 1 .053.103A.482.482 0 0 1 1-.273v.519L.999.273a.369.369 0 0 1-.005.064.201.201 0 0 1-.054.104.201.201 0 0 1-.103.053A.482.482 0 0 1 .773.5H.254L.227.499A.369.369 0 0 1 .163.494.201.201 0 0 1 .059.44.201.201 0 0 1 .006.337.482.482 0 0 1 0 .273v-.519l.001-.027c0-.022.002-.051.005-.064A.201.201 0 0 1 .06-.441a.201.201 0 0 1 .103-.053A.482.482 0 0 1 .227-.5h.519z" style="fill:url(#a);fill-rule:nonzero" transform="rotate(90 60.991 60.991) scale(243.964)"/><path d="M341.136 438.576c-2.187-1.094-12.934-6.38-14.937-7.109-2.004-.73-3.461-1.094-4.919 1.093-1.457 2.188-5.645 7.11-6.922 8.569-1.274 1.458-2.549 1.64-4.735.547-2.186-1.094-9.229-3.402-17.579-10.846-6.498-5.794-10.885-12.951-12.16-15.139-1.275-2.188-.135-3.37.959-4.46.983-.978 2.185-2.552 3.279-3.828 1.092-1.276 1.457-2.188 2.186-3.646.728-1.458.364-2.735-.183-3.828-.546-1.094-4.918-11.85-6.74-16.225-1.774-4.261-3.576-3.685-4.918-3.752-1.274-.063-2.732-.077-4.189-.077-1.457 0-3.826.548-5.829 2.735-2.004 2.188-7.651 7.475-7.651 18.23 0 10.756 7.833 21.147 8.926 22.605 1.093 1.459 15.414 23.531 37.341 32.996 5.215 2.252 9.288 3.597 12.462 4.604 5.237 1.663 10.001 1.428 13.768.866 4.2-.628 12.933-5.287 14.755-10.392 1.821-5.104 1.821-9.479 1.275-10.39-.547-.911-2.004-1.458-4.189-2.553m-39.885 54.441h-.029c-13.048-.006-25.846-3.509-37.009-10.132l-2.656-1.576-27.52 7.217 7.346-26.823-1.73-2.75c-7.278-11.573-11.122-24.95-11.116-38.685.015-40.078 32.634-72.685 72.742-72.685 19.421.008 37.678 7.579 51.407 21.318 13.728 13.739 21.285 32.003 21.277 51.425-.016 40.082-32.635 72.691-72.712 72.691m61.884-134.556c-16.517-16.531-38.482-25.639-61.885-25.649-48.22 0-87.464 39.23-87.484 87.45-.006 15.415 4.022 30.46 11.678 43.722l-12.411 45.319 46.376-12.161a87.443 87.443 0 0 0 41.806 10.645h.036c.003 0-.003 0 0 0 48.215 0 87.464-39.235 87.483-87.455.009-23.368-9.082-45.341-25.599-61.871" style="fill:#fff;fill-rule:nonzero" transform="translate(-176.519 -300.743)"/><defs><linearGradient id="a" x1="0" y1="0" x2="1" y2="0" gradientUnits="userSpaceOnUse" gradientTransform="matrix(1 0 0 -1 0 0)"><stop offset="0" style="stop-color:#61fd7d;stop-opacity:1"/><stop offset="1" style="stop-color:#2bb826;stop-opacity:1"/></linearGradient></defs></svg>

<?xml version="1.0" encoding="UTF-8" standalone="no"?>
<!DOCTYPE svg PUBLIC "-//W3C//DTD SVG 1.1//EN" "http://www.w3.org/Graphics/SVG/1.1/DTD/svg11.dtd">
<svg width="320" height="320" viewBox="0 0 244 244" version="1.1" xmlns="http://www.w3.org/2000/svg" xmlns:xlink="http://www.w3.org/1999/xlink" xml:space="preserve" xmlns:serif="http://www.serif.com/" style="fill-rule:evenodd;clip-rule:evenodd;stroke-linejoin:round;stroke-miterlimit:2;">
    <g transform="matrix(-1.53e-05,243.964,-243.964,-1.53e-05,121.982,-7.03001e-05)">
        <path d="M0.746,-0.5C0.752,-0.5 0.764,-0.5 0.773,-0.499C0.795,-0.499 0.824,-0.497 0.837,-0.494C0.857,-0.49 0.876,-0.484 0.891,-0.476C0.91,-0.467 0.926,-0.455 0.941,-0.44C0.955,-0.426 0.967,-0.41 0.976,-0.391C0.984,-0.376 0.99,-0.357 0.994,-0.337C0.997,-0.324 0.999,-0.295 1,-0.273C1,-0.263 1,-0.252 1,-0.246L1,0.246C1,0.252 1,0.264 0.999,0.273C0.999,0.295 0.997,0.324 0.994,0.337C0.99,0.357 0.984,0.376 0.976,0.391C0.967,0.41 0.955,0.426 0.94,0.441C0.926,0.455 0.91,0.467 0.891,0.476C0.876,0.484 0.857,0.49 0.837,0.494C0.824,0.497 0.795,0.499 0.773,0.5C0.763,0.5 0.752,0.5 0.746,0.5L0.254,0.5C0.248,0.5 0.236,0.5 0.227,0.499C0.205,0.499 0.176,0.497 0.163,0.494C0.143,0.49 0.124,0.484 0.109,0.476C0.09,0.467 0.074,0.455 0.059,0.44C0.045,0.426 0.033,0.41 0.024,0.391C0.016,0.376 0.01,0.357 0.006,0.337C0.003,0.324 0.001,0.295 0,0.273C0,0.263 0,0.252 0,0.246L0,-0.246C0,-0.252 0,-0.264 0.001,-0.273C0.001,-0.295 0.003,-0.324 0.006,-0.337C0.01,-0.357 0.016,-0.376 0.024,-0.391C0.033,-0.41 0.045,-0.426 0.06,-0.441C0.074,-0.455 0.09,-0.467 0.109,-0.476C0.124,-0.484 0.143,-0.49 0.163,-0.494C0.176,-0.497 0.205,-0.499 0.227,-0.5C0.237,-0.5 0.248,-0.5 0.254,-0.5L0.746,-0.5Z" style="fill:url(#_Linear1);fill-rule:nonzero;"/>
    </g>
    <g transform="matrix(1,0,0,1,-176.519,-300.743)">
        <path d="M341.136,438.576C338.949,437.482 328.202,432.196 326.199,431.467C324.195,430.737 322.738,430.373 321.28,432.56C319.823,434.748 315.635,439.67 314.358,441.129C313.084,442.587 311.809,442.769 309.623,441.676C307.437,440.582 300.394,438.274 292.044,430.83C285.546,425.036 281.159,417.879 279.884,415.691C278.609,413.503 279.749,412.321 280.843,411.231C281.826,410.253 283.028,408.679 284.122,407.403C285.214,406.127 285.579,405.215 286.308,403.757C287.036,402.299 286.672,401.022 286.125,399.929C285.579,398.835 281.207,388.079 279.385,383.704C277.611,379.443 275.809,380.019 274.467,379.952C273.193,379.889 271.735,379.875 270.278,379.875C268.821,379.875 266.452,380.423 264.449,382.61C262.445,384.798 256.798,390.085 256.798,400.84C256.798,411.596 264.631,421.987 265.724,423.445C266.817,424.904 281.138,446.976 303.065,456.441C308.28,458.693 312.353,460.038 315.527,461.045C320.764,462.708 325.528,462.473 329.295,461.911C333.495,461.283 342.228,456.624 344.05,451.519C345.871,446.415 345.871,442.04 345.325,441.129C344.778,440.218 343.321,439.671 341.136,438.576M301.251,493.017L301.222,493.017C288.174,493.011 275.376,489.508 264.213,482.885L261.557,481.309L234.037,488.526L241.383,461.703L239.653,458.953C232.375,447.38 228.531,434.003 228.537,420.268C228.552,380.19 261.171,347.583 301.279,347.583C320.7,347.591 338.957,355.162 352.686,368.901C366.414,382.64 373.971,400.904 373.963,420.326C373.947,460.408 341.328,493.017 301.251,493.017M363.135,358.461C346.618,341.93 324.653,332.822 301.25,332.812C253.03,332.812 213.786,372.042 213.766,420.262C213.76,435.677 217.788,450.722 225.444,463.984L213.033,509.303L259.409,497.142C272.187,504.109 286.573,507.781 301.215,507.787L301.251,507.787C301.254,507.787 301.248,507.787 301.251,507.787C349.466,507.787 388.715,468.552 388.734,420.332C388.743,396.964 379.652,374.991 363.135,358.461" style="fill:white;fill-rule:nonzero;"/>
    </g>
    <defs>
        <linearGradient id="_Linear1" x1="0" y1="0" x2="1" y2="0" gradientUnits="userSpaceOnUse" gradientTransform="matrix(1,0,0,-1,0,-3.74768e-06)"><stop offset="0" style="stop-color:rgb(97,253,125);stop-opacity:1"/><stop offset="1" style="stop-color:rgb(43,184,38);stop-opacity:1"/></linearGradient>
    </defs>
</svg>
